X: 43639
T: Zelda
R: jig
M: 6/8
K: Eminor
|:B2 E B2 E|cBA B2 E|BAG F2 A|AGF G2 E|
B2 E B2 E|cBA B2 E|BAG F2 A|AGF E3:|
|:EFG B3|EFG c3|EFG F3|AGF G2 E|
EFG B3|EFG c3|EFG F3|AGF E3:|

